X:2412
T:Gypsy Dance
O:england
C:Joseph Haydn
V:1 Program 1 0
V:2 Program 1 0 bass
M:2/4
L:1/16
Q:1/4=70
K:C
V:1
c3e g3c'|c'bbag4|gff4f2|fedf e2ed|
V:2
[C,4E,4G,4][C,4E,4G,4]|[C,4E,4G,4][C,4E,4G,4]|[B,,4D,4G,4][B,,4D,4G,4]|[C,4E,4G,4][C,4E,4G,4]|
V:1
c3eg3c'|c'bbag3c'|c'bb4d'2|d'c'bd' c'2c'2|
V:2
[C,4E,4G,4][C,4E,4G,4]|[C,4E,4G,4][C,4E,4G,4]|[G,,4D,4F,4][G,,4D,4F,4]|[C,4E,4][C,4E,4]|
V:1
c'bb4d'2|d'c'bd' c'2c'e|edd4f2|fagf e2ec'|
V:2
[G,4D4F4][G,4D4F4]|[G,4C4E4][G,4C4E4]|[B,,4G,4][B,,4G,4]|[C,4E,4G,4][C,4E,4G,4]|
V:1
c'bb4d'2|d'c'bd' c'2c'e|fedf edce|dcBd c2c2|]
V:2
[G,4D4F4][G,4D4F4]|[G,4C4E4][G,4C4E4]|[B,,4D,4G,4][C,4E,4G,4]|[G,,4D,4F,4][C,4E,4]|]


